X:024 
T:Brother Gildas' Jig*  
B:CRE4.023 (gan ainm, no repeats)
S:Sean Reid < Bro. Gildas
F:file ID: cre.4/024bro_g
Q:160
L:1/8
M:6/8
R:jig
K:D
F|AFA DFA|dcB AFD|GAG FAd|cde fdA|
gfe fed|cdc BFD|GFE FED|DFA d2 :|
E|FGA BAG|FAd fed|ceg gfe|dfd AFA|
BGB efg|AFA def|ABA GFE|DFA d2 :|

%%%

